modules/feathericon/icons/wordpress-alt.svg

<?xml version="1.0" encoding="UTF-8"?>
<svg width="14px" height="14px" viewBox="0 0 14 14" version="1.1" xmlns="http://www.w3.org/2000/svg" xmlns:xlink="http://www.w3.org/1999/xlink">
    <!-- Generator: sketchtool 48.1 (47250) - http://www.bohemiancoding.com/sketch -->
    <title>wordpress-alt</title>
    <desc>Created with sketchtool.</desc>
    <defs></defs>
    <g id="brand" stroke="none" stroke-width="1" fill="none" fill-rule="evenodd">
        <g id="wordpress-alt" fill="#000000">
            <path d="M12.5225185,3.98046667 C13.0137778,4.87683704 13.2933333,5.9055037 13.2933333,6.99972593 C13.2933333,9.32157778 12.035037,11.3486889 10.164,12.4395778 L12.0862222,6.8818 C12.4452593,5.98394815 12.5648148,5.26602222 12.5648148,4.62765185 C12.5648148,4.39594815 12.5495556,4.18091111 12.5225185,3.98046667 L12.5225185,3.98046667 Z M7.86725926,4.04898519 C8.24614815,4.02905926 8.58755556,3.98920741 8.58755556,3.98920741 C8.92666667,3.94905926 8.88666667,3.45068889 8.54740741,3.47054074 C8.54740741,3.47054074 7.528,3.55054074 6.86992593,3.55054074 C6.25155556,3.55054074 5.21244444,3.47054074 5.21244444,3.47054074 C4.87303704,3.45068889 4.83325926,3.96913333 5.17251852,3.98920741 C5.17251852,3.98920741 5.49355556,4.02905926 5.83266667,4.04898519 L6.81311111,6.73557778 L5.43562963,10.8661704 L3.14392593,4.04898519 C3.52311111,4.02905926 3.86414815,3.98920741 3.86414815,3.98920741 C4.20303704,3.94905926 4.16303704,3.45068889 3.82392593,3.47054074 C3.82392593,3.47054074 2.80474074,3.55054074 2.14659259,3.55054074 C2.02851852,3.55054074 1.88933333,3.54765185 1.74155556,3.54291111 C2.86688889,1.83446667 4.80111111,0.706244444 6.99992593,0.706244444 C8.6382963,0.706244444 10.1301481,1.33268889 11.2497778,2.35861481 C11.2226667,2.35698519 11.1962222,2.35357778 11.1682963,2.35357778 C10.5500741,2.35357778 10.1114074,2.8920963 10.1114074,3.47054074 C10.1114074,3.98920741 10.4106667,4.42802222 10.7296296,4.94661481 C10.968963,5.3658 11.2485185,5.90424444 11.2485185,6.68231852 C11.2485185,7.22091111 11.0413333,7.84602222 10.7696296,8.71683704 L10.1417037,10.8142444 L7.86725926,4.04898519 Z M6.99992593,13.2937259 C6.38214815,13.2937259 5.78592593,13.2031333 5.22192593,13.0372815 L7.11044444,7.55024444 L9.04481481,12.8501704 C9.05755556,12.8812815 9.07318519,12.9099481 9.08985185,12.9369111 C8.4357037,13.1672074 7.73281481,13.2937259 6.99992593,13.2937259 L6.99992593,13.2937259 Z M0.706444444,6.99972593 C0.706444444,6.08728148 0.902148148,5.22113333 1.25140741,4.43846667 L4.25355556,12.6638 C2.15392593,11.6438 0.706444444,9.49083704 0.706444444,6.99972593 L0.706444444,6.99972593 Z M6.99992593,-5.18518519e-05 C3.14014815,-5.18518519e-05 -3.55271368e-15,3.14002222 -3.55271368e-15,6.99972593 C-3.55271368e-15,10.8595778 3.14014815,14.0000222 6.99992593,14.0000222 C10.8596296,14.0000222 13.9999259,10.8595778 13.9999259,6.99972593 C13.9999259,3.14002222 10.8596296,-5.18518519e-05 6.99992593,-5.18518519e-05 L6.99992593,-5.18518519e-05 Z" id="Shape"></path>
        </g>
    </g>
</svg>

<svg width="14" height="14" xmlns="http://www.w3.org/2000/svg"><path d="M12.523 3.98c.49.897.77 1.926.77 3.02a6.29 6.29 0 0 1-3.129 5.44l1.922-5.558c.36-.898.479-1.616.479-2.254 0-.232-.015-.447-.042-.648zm-4.656.069c.38-.02.72-.06.72-.06.34-.04.3-.538-.04-.518 0 0-1.019.08-1.677.08-.618 0-1.658-.08-1.658-.08-.339-.02-.379.498-.04.518 0 0 .322.04.66.06l.981 2.687-1.377 4.13L3.144 4.05c.38-.02.72-.06.72-.06.339-.04.299-.538-.04-.518 0 0-1.02.08-1.677.08-.118 0-.258-.003-.405-.008A6.286 6.286 0 0 1 7 .706a6.27 6.27 0 0 1 4.25 1.653c-.027-.002-.054-.005-.082-.005-.618 0-1.057.538-1.057 1.117 0 .518.3.957.619 1.476.239.419.519.957.519 1.735 0 .539-.208 1.164-.48 2.035l-.627 2.097L7.867 4.05zM7 13.294c-.618 0-1.214-.09-1.778-.257L7.11 7.55l1.935 5.3c.013.031.028.06.045.087a6.28 6.28 0 0 1-2.09.357zM.706 7c0-.913.196-1.779.545-2.562l3.003 8.226A6.294 6.294 0 0 1 .706 7zM7 0C3.14 0 0 3.14 0 7s3.14 7 7 7 7-3.14 7-7-3.14-7-7-7z" fill="#000" fill-rule="evenodd"/></svg>
